X:348
T:The Drunken Parson
D:Jimmy Greenan, The Jeenius of Jim
Z:Nigel Gatherer
L:1/8
M:6/8
K:A
e|Acc Bdd|cee d2 f|ecc dBB|cAA BAE|
Acc Bdd|cee d2 f|ecc dBe|cAA A2:|
B|Ace aga|fdd d2 c|B^df bab|gee e2 c|
Ace aga|fdd d2 f|ecc dBe|cAA A2:|
<end>
<start>
